X: 15222
T: My dear I dow ne do ne mair
%R: reel
B: James Oswald "The Caledonian Pocket Companion" v.1 b.5 p.22 #2 (and top 7 staffs on p.23)
S: https://ia800501.us.archive.org/18/items/caledonianpocket01rugg/caledonianpocket01rugg_bw.pdf
Z: 2020 John Chambers <jc:trillian.mit.edu>
M: C|
L: 1/8
K: F
%%slurgraces 1
%%graceslurs 1
"_Brisk"Ac |\
{c}d3f (cA)(GF) | c2G2 G2(Ac) | {c}d3f (cA)(GF) | {F}G2A2 f3g |\
(ag)(fd) (fd)(cA) | (BA)(GF) G2(Ac) | d3c A2(fd) | {d}c2A2 A2 :|
|: (Ac) |\
d2A2 f2A2 | c2(AG) G2(Ac) | d2A2 f2A2 | (cAc)d f3g |\
a2f2 g2d2 | f2A2 {A}G2(Ac) | d3e (fe)(fg) | {fg}a2A2 A2 :|
|: Ac |\
dAfA cAfA | c2(AG) G2(Ac) | dAfA cAfA | cAcd f3g |\
afgd fcdf | cAFA G2(Ac) | d2(dc) {B}A2(fd) | {d}c2A2 A2 :|
|: (ag) |\
fafc AcAF | c2(AG) G2(ag) | fafc AcAF | cage f3g |\
agba gfdg | (fd)(cA) {A}G2(Ac) | d3c A2(fd) | {d}c2A2 A2 :|


